X:18302
T:Villey Vous Dance,2nd part. JNu.40
M:6/8
Q:100
S:James Nuttall MS,c1830,Rossendale,East Lancs.
O:England
A:East Lancashire
Z:Chris Partington
K:D
"secundo"A|d2dd2d|GFGF2F|A2Bc2A|B2cd2A|!
d2dd2d|GFG FAd|e2dc2B|ABGF2::!
d|c2cA2F|Bcdc2f|c2cA2F|Bcdc2f|!
e6|d2cc2B|B2AA2A|Bcdc2::!
d|dfa dfa|cea cea|c2zc2z|.d2z.d2z|!
dfa dfa|cea dfa|g2fe2d|fgef2:|]
